X:3386
T:La Cosa Mulligan
T:Jackson's
T:Over The Isles to America
O:england
C:Tommy Peoples
R:reel
D:Frankie Gavin & Alec Finn
D:Barry Carroll & Joe McHugh: The Long Finger
M:C|
K:D
D2FD EDFE|DEFD EA,~A,2|CE~E2 GABd|ceAc dBAF|
D2FD EDFE|DEFD EFGB|Ac~c2 dBAG|FAEG FD~D2:|
|:fddc defd|~e3g fedB|A2cA BAcB|ABcA Bcde|
fddc defd|~e3g fedB|ABde faeg|1 fddc d3e:|2 fddc d3B||
A2~A2 BAAG|FAAF GFED|~E3F GFED|Egec dBAF|
D2FD EDFE|DEFD EFGB|Ac~c2 dBAG|FAEG FD~D2||


